!!!OTL: HOERET WIE DIE WACHTEL IN FREUDEN DORT SCHLAEGT
!!!ARE: Europa, Mitteleuropa, Deutschland, Franken
!!!SCT: B0183
!!!YEM: Copyright 1995, estate of Helmut Schaffrath.
**kern
*ICvox
*Ivox
*M3/4
*k[b-]
*F:
=1
{4cc
8cc
8a
8ff
8dd
=2
4cc
4.cc}
{8dd
=3
8cc
8b-
4a
4g
=4
4f
4r}
{8.f
16a
=5
4f
4r
8.f
16a
=6
4f
2r}
=7
{4f
4a
8.cc
16dd
=8
8cc
8b-
8a
8g
8f
8e
=9
2f
4r}
=10
{4a
4cc
4a
=11
4g
4b-
4g
=12
4f
4cc
8.a
16g
=13
2g
4r}
=14
{4a
4cc
4a
=15
4g
4b-
4g
=16
4f
4cc
8.a
16g
=17
2g
4r}
=18
{4cc
8cc
8a
8b-
8dd
=19
8.dd
16cc
4.cc}
{8dd
=20
8cc
8b-
4a
4g
=21
2a}
{8.f
16a
=22
4f
4r
8.f
16a
=23
4f
2r}
=24
{4f
4a
8.cc
16dd
=25
4cc
4b-
4g
=26
2f
4r}
==
!!!AGN: Natur - Lied, Jahreslauf
!!!ONB: ESAC (Essen Associative Code) Database: BOEHME
!!!AMT: simple triple
!!!AIN: vox
!!!EED: Helmut Schaffrath
!!!EEV: 1.0
*-
